icons/speed.svg

<svg width="24" height="24" viewBox="0 0 24 24" fill="none" xmlns="http://www.w3.org/2000/svg">
<path fill-rule="evenodd" clip-rule="evenodd" d="M1.53819 4.11302C1.86892 3.94083 2.26799 3.96694 2.57346 4.18077L11 10.0793V5C11 4.62713 11.2075 4.28522 11.5382 4.11302C11.8689 3.94083 12.268 3.96694 12.5735 4.18077L22.5735 11.1808C22.8408 11.3679 23 11.6737 23 12C23 12.3263 22.8408 12.6321 22.5735 12.8192L12.5735 19.8192C12.268 20.0331 11.8689 20.0592 11.5382 19.887C11.2075 19.7148 11 19.3729 11 19V13.9207L2.57346 19.8192C2.26799 20.0331 1.86892 20.0592 1.53819 19.887C1.20746 19.7148 1 19.3729 1 19V5C1 4.62713 1.20746 4.28522 1.53819 4.11302ZM10.2562 12L3 6.92066V17.0793L10.2562 12ZM13 17.0793L20.2562 12L13 6.92066V17.0793Z" fill="black"/>
</svg>

<svg
  width="24"
  height="24"
  viewBox="0 0 24 24"
  xmlns="http://www.w3.org/2000/svg"
>
  <path
    fill-rule="evenodd"
    clip-rule="evenodd"
    d="M1.538 4.113a1 1 0 0 1 1.035.068L11 10.079V5a1 1 0 0 1 1.573-.82l10 7a1 1 0 0 1 0 1.64l-10 7A1 1 0 0 1 11 19v-5.08l-8.427 5.9A1 1 0 0 1 1 19V5a1 1 0 0 1 .538-.887zM10.256 12L3 6.92v10.16L10.256 12zM13 17.08L20.256 12 13 6.92v10.16z"
  />
</svg>
